X: 147
T: Jacques Cartier
L: 1/8
B: NEFR #147
F: http://www.ibiblio.org/fiddlers/JACKY_JAZZ.htm
N: The parts are played in either order by various musicians.
M: C|
K: D
|:\
"D"fa fd "A7"eg ec | "A7"Ac ec "D"de fd | "D"Ad fd "G"gf ed | "E7"ca ^gb "A7"a3=g |
"D"fa fd "A7"eg ec | "A7"Ac ec "D"de fd | "D"Ad fd "G"gf ed | "A7"ca ec "D"d4 :|
|:\
"D"FA de fd AF | "Em"GB ef "A7"ge ce | "D"df af "A7"bg ec | "D"df ed "A7"cB AG |
"D"FA de fd AF | "Em"GB ef "A7"ge ce | "D"df af "A7"bg ec | "D"df "A7"ec "D"d4 :|


